icons/arrow/horizontal.svg

<svg width="32" height="32" viewBox="0 0 32 32" xmlns="http://www.w3.org/2000/svg"><path fill-rule="evenodd" clip-rule="evenodd" d="M22.0404 7.29289L30.0404 15.2929L30.7475 16L30.0404 16.7071L22.0404 24.7071L20.6262 23.2929L26.9191 17H5.08087L11.3738 23.2929L9.95955 24.7071L1.95955 16.7071L1.25244 16L1.95955 15.2929L9.95955 7.29289L11.3738 8.70711L5.08087 15H26.9191L20.6262 8.70711L22.0404 7.29289Z"/></svg>

<svg viewBox="0 0 32 32" xmlns="http://www.w3.org/2000/svg"><path fill-rule="evenodd" d="M22.04 7.293l8 8 .707.707-.707.707-8 8-1.414-1.414L26.92 17H5.081l6.293 6.293-1.414 1.414-8-8L1.252 16l.708-.707 8-8 1.414 1.414L5.08 15h21.838l-6.293-6.293 1.414-1.414z"/></svg>
